X:495
T:Bourre
M:3/8
O:France
R:Bourre
Z:Richard Robinson 
%%TUNEURL: http://www.leeds.ac.uk/music/Info/RRTuneBk/gettune/00000b40.html
%%ID:00000b40
K:C
c2Bcde| f2d2g2| f2g4| d6|\
c2Bcde| f2d2g2| f2g4| d4g2:|
|: agf2e2| deef2| edc2d2| e2d2g2|\
agf2e2| d3ef2| edc2B2| c6:|
